app/images/icons/favorite.svg

<svg fill="none" height="17" viewBox="0 0 18 17" width="18" xmlns="http://www.w3.org/2000/svg"><path d="m16.2422 1.46484c-1.9336-1.65234-4.7813-1.335934-6.57423.49219l-.66797.70313-.70312-.70313c-1.75782-1.828124-4.64063-2.14453-6.57422-.49219-2.214848 1.89844-2.320316 5.27344-.35157 7.3125l6.82032 7.03126c.42187.457 1.16015.457 1.58203 0l6.82036-7.03126c1.9687-2.03906 1.8632-5.41406-.3516-7.3125z" fill="#b3b3b3"/></svg>

<svg width="18" height="17" viewBox="0 0 18 17" fill="none" xmlns="http://www.w3.org/2000/svg">
<path d="M16.2422 1.46484C14.3086 -0.1875 11.4609 0.128906 9.66797 1.95703L9 2.66016L8.29688 1.95703C6.53906 0.128906 3.65625 -0.1875 1.72266 1.46484C-0.492188 3.36328 -0.597656 6.73828 1.37109 8.77734L8.19141 15.8086C8.61328 16.2656 9.35156 16.2656 9.77344 15.8086L16.5938 8.77734C18.5625 6.73828 18.457 3.36328 16.2422 1.46484Z" fill="#B3B3B3"/>
</svg>
